assets/img/linkedin.svg

<?xml version="1.0" encoding="iso-8859-1"?>
<!-- Generator: Adobe Illustrator 19.0.0, SVG Export Plug-In . SVG Version: 6.00 Build 0)  -->
<svg version="1.1" id="Layer_1" xmlns="http://www.w3.org/2000/svg" xmlns:xlink="http://www.w3.org/1999/xlink" x="0px" y="0px"
	 viewBox="0 0 382 382" style="enable-background:new 0 0 382 382;" xml:space="preserve">
<path style="fill:#0077B7;" d="M347.445,0H34.555C15.471,0,0,15.471,0,34.555v312.889C0,366.529,15.471,382,34.555,382h312.889
	C366.529,382,382,366.529,382,347.444V34.555C382,15.471,366.529,0,347.445,0z M118.207,329.844c0,5.554-4.502,10.056-10.056,10.056
	H65.345c-5.554,0-10.056-4.502-10.056-10.056V150.403c0-5.554,4.502-10.056,10.056-10.056h42.806
	c5.554,0,10.056,4.502,10.056,10.056V329.844z M86.748,123.432c-22.459,0-40.666-18.207-40.666-40.666S64.289,42.1,86.748,42.1
	s40.666,18.207,40.666,40.666S109.208,123.432,86.748,123.432z M341.91,330.654c0,5.106-4.14,9.246-9.246,9.246H286.73
	c-5.106,0-9.246-4.14-9.246-9.246v-84.168c0-12.556,3.683-55.021-32.813-55.021c-28.309,0-34.051,29.066-35.204,42.11v97.079
	c0,5.106-4.139,9.246-9.246,9.246h-44.426c-5.106,0-9.246-4.14-9.246-9.246V149.593c0-5.106,4.14-9.246,9.246-9.246h44.426
	c5.106,0,9.246,4.14,9.246,9.246v15.655c10.497-15.753,26.097-27.912,59.312-27.912c73.552,0,73.131,68.716,73.131,106.472
	L341.91,330.654L341.91,330.654z"/>
<g>
</g>
<g>
</g>
<g>
</g>
<g>
</g>
<g>
</g>
<g>
</g>
<g>
</g>
<g>
</g>
<g>
</g>
<g>
</g>
<g>
</g>
<g>
</g>
<g>
</g>
<g>
</g>
<g>
</g>
</svg>

<svg width="382" height="382" viewBox="0 0 382 382" fill="none" xmlns="http://www.w3.org/2000/svg">
<rect width="382" height="382" rx="60" fill="white"/>
<path d="M347.445 0H34.555C15.471 0 0 15.471 0 34.555V347.444C0 366.529 15.471 382 34.555 382H347.444C366.529 382 382 366.529 382 347.444V34.555C382 15.471 366.529 0 347.445 0ZM118.207 329.844C118.207 335.398 113.705 339.9 108.151 339.9H65.345C59.791 339.9 55.289 335.398 55.289 329.844V150.403C55.289 144.849 59.791 140.347 65.345 140.347H108.151C113.705 140.347 118.207 144.849 118.207 150.403V329.844ZM86.748 123.432C64.289 123.432 46.082 105.225 46.082 82.766C46.082 60.307 64.289 42.1 86.748 42.1C109.207 42.1 127.414 60.307 127.414 82.766C127.414 105.225 109.208 123.432 86.748 123.432ZM341.91 330.654C341.91 335.76 337.77 339.9 332.664 339.9H286.73C281.624 339.9 277.484 335.76 277.484 330.654V246.486C277.484 233.93 281.167 191.465 244.671 191.465C216.362 191.465 210.62 220.531 209.467 233.575V330.654C209.467 335.76 205.328 339.9 200.221 339.9H155.795C150.689 339.9 146.549 335.76 146.549 330.654V149.593C146.549 144.487 150.689 140.347 155.795 140.347H200.221C205.327 140.347 209.467 144.487 209.467 149.593V165.248C219.964 149.495 235.564 137.336 268.779 137.336C342.331 137.336 341.91 206.052 341.91 243.808V330.654Z" fill="#0077B7"/>
</svg>
